X:1
T:Title
%%score { ( 1 4 ) | ( 2 3 ) }
L:1/8
M:6/8
K:Bb
V:1 treble nm="Grand Piano"
V:4 treble 
V:2 bass 
V:3 bass 
V:1
 z3 z2[Q:1/4=87] [B,D]/[CE]/ | [DF]2 [DB] G2 B | F B2 [DB]2 [Fd] | c2 c d2 e |[M:5/8] d-d- d3 | %5
[M:1/8] D/E/ |[M:3/4] [DF]2 [DB] G2 B | F B2 [DB]2 [Fd] | c2 c d2 c | %9
[M:5/8] [B,DB]-[B,DB]- [B,DB]3 |[M:1/8] A/B/ |[M:3/4] c3 e3 | [DB]3 [Fd]3 | %13
 [=Ec]2 [Ec]E- [EA][EB] |[M:5/8] [Ec]-[Ec]- [Ec]3 |[M:1/8] F |[M:3/4] z2 z [Fd]3 | [EG]3 [Ge]3 | %18
 d2 c B2 A |[M:5/8] [DFB]-[DFB]- [DFB]3 |] %20
V:2
 z3 z2 [B,,F,]/[B,,F,]/ | [B,,B,]2 [B,,B,] [E,B,E]2 [G,B,E] | [B,D] [B,D]2 [B,,F,]2 [B,,B,] | %3
 [F,A,F]2 [F,A,F] [F,B,F]2 [F,CF] |[M:5/8] [B,F]-[B,F]- [B,F]3 |[M:1/8][K:bass] B,/C/ | %6
[M:3/4] [B,,B,]2 [B,,B,] [E,B,E]2[K:treble] [G,B,E] | [B,D] [B,DF]2[K:bass] [B,,F,]2 [B,,B,] | %8
 [F,A,E]2 [F,A,E] [F,B,F]2 [F,A,E] |[M:5/8] B,,-B,,- B,,3 |[M:1/8][K:treble] F | %11
[M:3/4] F2- [F,F] F2- [F,F] | [B,,B,]2 [B,,B,] [B,,B,]2 [B,,B,] | [C,G,]2 .[C,G,]2 A,[C,G,] | %14
[M:5/8] [F,A,]2 F, F,2 |[M:1/8] E |[M:3/4] [B,,B,]2 [B,,B,] [B,,B,]2 B,, | E,2 E, [E,B,]2 E, | %18
 [F,B,F]2 [F,EF] [F,DF]2 [F,CF] |[M:5/8] B,,-B,,- B,,3 |] %20
V:3
 x6 | x6 | x6 | x6 |[M:5/8] x5 |[M:1/8][K:bass] [B,,F,] |[M:3/4] x5[K:treble] x | x3[K:bass] x3 | %8
 x6 |[M:5/8] x5 |[M:1/8][K:treble] x |[M:3/4] [F,A,]2 z .[F,A,]3 | x6 | z2 z .C,3 |[M:5/8] x5 | %15
[M:1/8] x |[M:3/4] x6 | x6 | x6 |[M:5/8] x5 |] %20
V:4
 x6 | x6 | x6 | x6 |[M:5/8] x5 |[M:1/8] x |[M:3/4] x6 | x6 | x6 |[M:5/8] x5 |[M:1/8] x | %11
[M:3/4] z2 .A,2 z A, | x6 | z2 z [B,G] z2 |[M:5/8] z2 A, A,2 |[M:1/8] x |[M:3/4] [DB]4 z B, | %17
 B,2 .B,2 z B, | x6 |[M:5/8] x5 |] %20

